;START_OF_HEADER
;HEADER_VERSION:0.1
;FLAVOR:Griffin
;GENERATOR.NAME:Cura_SteamEngine
;GENERATOR.VERSION:4.13.1
;GENERATOR.BUILD_DATE:2022-01-28
;TARGET_MACHINE.NAME:Ultimaker S5
;EXTRUDER_TRAIN.0.INITIAL_TEMPERATURE:200
;EXTRUDER_TRAIN.0.MATERIAL.VOLUME_USED:5943
;EXTRUDER_TRAIN.0.MATERIAL.GUID:506c9f0d-e3aa-4bd4-b2d2-23e2425b1aa9
;EXTRUDER_TRAIN.0.NOZZLE.DIAMETER:0.4
;EXTRUDER_TRAIN.0.NOZZLE.NAME:AA 0.4
;BUILD_PLATE.TYPE:glass
;BUILD_PLATE.INITIAL_TEMPERATURE:60
;BUILD_VOLUME.TEMPERATURE:28
;PRINT.TIME:6287
;PRINT.GROUPS:1
;PRINT.SIZE.MIN.X:145.302
;PRINT.SIZE.MIN.Y:100.302
;PRINT.SIZE.MIN.Z:0.2
;PRINT.SIZE.MAX.X:184.699
;PRINT.SIZE.MAX.Y:139.698
;PRINT.SIZE.MAX.Z:60.1
;END_OF_HEADER
;Generated with Cura_SteamEngine 4.13.1
T0
M82 ;absolute extrusion mode

G92 E0
M109 S200
G280 S1
G0 Z20.001
G1 F1500 E-6.5
;LAYER_COUNT:600
;LAYER:0
M107
M204 S625
M205 X50 Y50
G1 F600 Z2.2
G0 F1285.7 X170.869 Y124.19 Z2.2
M204 S500
M205 X20 Y20
;TYPE:SKIRT
G1 F600 Z0.2
G1 F1500 E0
G1 F600 X170.409 Y124.775 E0.0098
G1 X169.888 Y125.307 E0.0196
G1 X169.314 Y125.78 E0.0294
G1 X168.692 Y126.189 E0.0392
G1 X167.89 Y126.59 E0.05101
G1 X166.987 Y126.926 E0.06369
G1 X166.264 Y127.101 E0.07349
G1 X165.526 Y127.197 E0.08329
G1 X164.782 Y127.214 E0.09309
G1 X164.04 Y127.15 E0.10289
G1 X163.309 Y127.008 E0.1127
G1 X162.312 Y126.675 E0.12654
G1 X161.441 Y126.264 E0.13922
G1 X160.81 Y125.869 E0.14902
G1 X160.225 Y125.409 E0.15882
G1 X159.693 Y124.888 E0.16863
G1 X159.22 Y124.314 E0.17842
G1 X158.811 Y123.692 E0.18822
G1 X158.41 Y122.89 E0.20003
G1 X158.074 Y121.987 E0.21272
G1 X157.899 Y121.264 E0.22251
G1 X157.803 Y120.526 E0.23231
G1 X157.786 Y119.782 E0.24211
G1 X157.85 Y119.04 E0.25192
G1 X157.992 Y118.309 E0.26172
G1 X158.325 Y117.312 E0.27556
G1 X158.736 Y116.441 E0.28824
G1 X159.131 Y115.81 E0.29805
G1 X159.591 Y115.225 E0.30784
G1 X160.112 Y114.693 E0.31765
G1 X160.686 Y114.22 E0.32744
G1 X161.308 Y113.811 E0.33724
G1 X162.11 Y113.41 E0.34905
G1 X163.013 Y113.074 E0.36174
G1 X163.736 Y112.899 E0.37153
G1 X164.474 Y112.803 E0.38133
G1 X165.218 Y112.786 E0.39113
G1 X165.96 Y112.85 E0.40094
G1 X166.691 Y112.992 E0.41074
G1 X167.688 Y113.325 E0.42458
G1 X168.559 Y113.736 E0.43727
G1 X169.19 Y114.131 E0.44707
G1 X169.775 Y114.591 E0.45687
G1 X170.307 Y115.112 E0.46667
G1 X170.78 Y115.686 E0.47647
G1 X171.189 Y116.308 E0.48627
G1 X171.59 Y117.11 E0.49807
G1 X171.926 Y118.013 E0.51076
G1 X172.101 Y118.736 E0.52056
G1 X172.197 Y119.474 E0.53036
G1 X172.214 Y120.218 E0.54015
G1 X172.15 Y120.96 E0.54996
G1 X172.008 Y121.691 E0.55977
G1 X171.675 Y122.688 E0.57361
G1 X171.264 Y123.559 E0.58629
G1 X170.869 Y124.19 E0.59609
M204 S625
M205 X50 Y50
G0 F1285.7 X170.5 Y123.985
M204 S500
M205 X20 Y20
G1 F600 X170.049 Y124.548 E0.60559
G1 X169.539 Y125.057 E0.61508
G1 X168.975 Y125.507 E0.62458
G1 X168.365 Y125.892 E0.63408
G1 X167.525 Y126.287 E0.6463
G1 X166.846 Y126.53 E0.65579
G1 X166.143 Y126.696 E0.66531
G1 X165.427 Y126.783 E0.6748
G1 X164.706 Y126.79 E0.6843
G1 X163.988 Y126.718 E0.6938
G1 X163.283 Y126.566 E0.70329
G1 X162.475 Y126.287 E0.71455
G1 X161.625 Y125.886 E0.72693
G1 X161.015 Y125.5 E0.73643
G1 X160.452 Y125.049 E0.74593
G1 X159.943 Y124.539 E0.75542
G1 X159.493 Y123.975 E0.76492
G1 X159.108 Y123.365 E0.77442
G1 X158.713 Y122.525 E0.78664
G1 X158.47 Y121.846 E0.79613
G1 X158.304 Y121.143 E0.80564
G1 X158.217 Y120.427 E0.81514
G1 X158.21 Y119.706 E0.82464
G1 X158.282 Y118.988 E0.83414
G1 X158.434 Y118.283 E0.84363
G1 X158.713 Y117.475 E0.85489
G1 X159.114 Y116.625 E0.86727
G1 X159.5 Y116.015 E0.87677
G1 X159.951 Y115.452 E0.88627
G1 X160.461 Y114.943 E0.89576
G1 X161.025 Y114.493 E0.90526
G1 X161.635 Y114.108 E0.91476
G1 X162.475 Y113.713 E0.92698
G1 X163.154 Y113.47 E0.93647
G1 X163.857 Y113.304 E0.94598
G1 X164.573 Y113.217 E0.95548
G1 X165.294 Y113.21 E0.96498
G1 X166.012 Y113.282 E0.97448
G1 X166.717 Y113.434 E0.98397
G1 X167.525 Y113.713 E0.99523
G1 X168.375 Y114.114 E1.0076
G1 X168.985 Y114.5 E1.01711
G1 X169.548 Y114.951 E1.02661
G1 X170.057 Y115.461 E1.0361
G1 X170.507 Y116.025 E1.0456
G1 X170.892 Y116.635 E1.05509
G1 X171.287 Y117.475 E1.06732
G1 X171.53 Y118.154 E1.07681
G1 X171.696 Y118.857 E1.08632
G1 X171.783 Y119.573 E1.09582
G1 X171.79 Y120.294 E1.10532
G1 X171.718 Y121.012 E1.11482
G1 X171.566 Y121.717 E1.12431
G1 X171.287 Y122.525 E1.13557
G1 X170.886 Y123.375 E1.14794
G1 X170.5 Y123.985 E1.15745
M204 S625
M205 X50 Y50
G0 F1285.7 X170.132 Y123.778
M204 S500
M205 X20 Y20
G1 F600 X169.69 Y124.318 E1.16664
G1 X169.19 Y124.805 E1.17583
G1 X168.637 Y125.231 E1.18502
G1 X168.04 Y125.59 E1.19419
G1 X167.362 Y125.9 E1.20401
G1 X166.704 Y126.134 E1.21321
G1 X166.025 Y126.29 E1.22238
G1 X165.331 Y126.368 E1.23157
G1 X164.634 Y126.366 E1.24075
G1 X163.941 Y126.284 E1.24994
G1 X163.262 Y126.124 E1.25913
G1 X162.436 Y125.815 E1.27074
G1 X161.809 Y125.508 E1.27993
G1 X161.222 Y125.132 E1.28911
G1 X160.682 Y124.69 E1.2983
G1 X160.195 Y124.19 E1.30749
G1 X159.769 Y123.637 E1.31668
G1 X159.41 Y123.04 E1.32585
G1 X159.1 Y122.362 E1.33567
G1 X158.866 Y121.704 E1.34487
G1 X158.71 Y121.025 E1.35404
G1 X158.632 Y120.331 E1.36324
G1 X158.634 Y119.634 E1.37241
G1 X158.716 Y118.941 E1.3816
G1 X158.876 Y118.262 E1.39079
G1 X159.185 Y117.436 E1.4024
G1 X159.492 Y116.809 E1.41159
G1 X159.868 Y116.222 E1.42077
G1 X160.31 Y115.682 E1.42996
G1 X160.81 Y115.195 E1.43915
G1 X161.363 Y114.769 E1.44834
G1 X161.96 Y114.41 E1.45751
G1 X162.638 Y114.1 E1.46733
G1 X163.296 Y113.866 E1.47653
G1 X163.975 Y113.71 E1.4857
G1 X164.669 Y113.632 E1.4949
G1 X165.366 Y113.634 E1.50407
G1 X166.059 Y113.716 E1.51326
G1 X166.738 Y113.876 E1.52245
G1 X167.564 Y114.185 E1.53406
G1 X168.191 Y114.492 E1.54325
G1 X168.778 Y114.868 E1.55243
G1 X169.318 Y115.31 E1.56162
G1 X169.805 Y115.81 E1.57081
G1 X170.231 Y116.363 E1.58
G1 X170.59 Y116.96 E1.58918
G1 X170.9 Y117.638 E1.59899
G1 X171.134 Y118.296 E1.60819
G1 X171.29 Y118.975 E1.61736
G1 X171.368 Y119.669 E1.62656
G1 X171.366 Y120.366 E1.63573
G1 X171.284 Y121.059 E1.64492
G1 X171.124 Y121.738 E1.65411
G1 X170.815 Y122.564 E1.66572
G1 X170.508 Y123.191 E1.67491
G1 X170.132 Y123.778 E1.68409
M204 S625
M205 X50 Y50
G0 F1285.7 X169.764 Y123.569
M204 S500
M205 X20 Y20
G1 F600 X169.332 Y124.086 E1.69296
G1 X168.843 Y124.549 E1.70183
G1 X168.302 Y124.949 E1.71069
G1 X167.401 Y125.428 E1.72413
G1 X166.564 Y125.737 E1.73587
G1 X165.907 Y125.884 E1.74474
G1 X165.238 Y125.952 E1.75359
G1 X164.564 Y125.94 E1.76247
G1 X163.897 Y125.849 E1.77133
G1 X163.246 Y125.679 E1.78019
G1 X162.599 Y125.428 E1.78933
G1 X161.995 Y125.131 E1.79819
G1 X161.431 Y124.764 E1.80705
G1 X160.914 Y124.332 E1.81593
G1 X160.451 Y123.843 E1.82479
G1 X160.051 Y123.302 E1.83365
G1 X159.572 Y122.401 E1.84709
G1 X159.263 Y121.564 E1.85884
G1 X159.116 Y120.907 E1.8677
G1 X159.048 Y120.238 E1.87656
G1 X159.06 Y119.564 E1.88543
G1 X159.151 Y118.897 E1.8943
G1 X159.321 Y118.246 E1.90315
G1 X159.572 Y117.599 E1.91229
G1 X159.869 Y116.995 E1.92116
G1 X160.236 Y116.431 E1.93002
G1 X160.668 Y115.914 E1.93889
G1 X161.157 Y115.451 E1.94775
G1 X161.698 Y115.051 E1.95661
G1 X162.599 Y114.572 E1.97005
G1 X163.436 Y114.263 E1.9818
G1 X164.093 Y114.116 E1.99066
G1 X164.762 Y114.048 E1.99952
G1 X165.436 Y114.06 E2.00839
G1 X166.103 Y114.151 E2.01726
G1 X166.754 Y114.321 E2.02612
G1 X167.401 Y114.572 E2.03525
G1 X168.005 Y114.869 E2.04412
G1 X168.569 Y115.236 E2.05298
G1 X169.086 Y115.668 E2.06185
G1 X169.549 Y116.157 E2.07072
G1 X169.949 Y116.698 E2.07957
G1 X170.428 Y117.599 E2.09301
G1 X170.737 Y118.436 E2.10476
G1 X170.884 Y119.093 E2.11362
G1 X170.952 Y119.762 E2.12248
G1 X170.94 Y120.436 E2.13135
G1 X170.849 Y121.103 E2.14022
G1 X170.679 Y121.754 E2.14908
G1 X170.428 Y122.401 E2.15822
G1 X170.131 Y123.005 E2.16708
G1 X169.764 Y123.569 E2.17594
M204 S625
M205 X50 Y50
G0 F1285.7 X169.397 Y123.359
M204 S500
M205 X20 Y20
G1 F600 X168.976 Y123.852 E2.18448
G1 X168.498 Y124.289 E2.193
G1 X167.969 Y124.663 E2.20153
G1 X167.036 Y125.126 E2.21525
G1 X166.425 Y125.34 E2.22377
G1 X165.792 Y125.477 E2.2323
G1 X165.147 Y125.535 E2.24083
G1 X164.499 Y125.513 E2.24937
G1 X163.859 Y125.412 E2.2579
G1 X162.964 Y125.126 E2.27027
G1 X162.181 Y124.753 E2.28169
G1 X161.641 Y124.397 E2.29021
G1 X161.148 Y123.976 E2.29874
G1 X160.711 Y123.498 E2.30727
G1 X160.337 Y122.969 E2.3158
G1 X159.874 Y122.036 E2.32951
G1 X159.66 Y121.425 E2.33804
G1 X159.523 Y120.792 E2.34657
G1 X159.465 Y120.147 E2.35509
G1 X159.487 Y119.499 E2.36363
G1 X159.588 Y118.859 E2.37216
G1 X159.874 Y117.964 E2.38454
G1 X160.247 Y117.181 E2.39596
G1 X160.603 Y116.641 E2.40447
G1 X161.024 Y116.148 E2.41301
G1 X161.502 Y115.711 E2.42154
G1 X162.031 Y115.337 E2.43007
G1 X162.964 Y114.874 E2.44378
G1 X163.575 Y114.66 E2.45231
G1 X164.208 Y114.523 E2.46083
G1 X164.853 Y114.465 E2.46936
G1 X165.501 Y114.487 E2.4779
G1 X166.141 Y114.588 E2.48643
G1 X167.036 Y114.874 E2.4988
G1 X167.819 Y115.247 E2.51022
G1 X168.359 Y115.603 E2.51874
G1 X168.852 Y116.024 E2.52727
G1 X169.289 Y116.502 E2.5358
G1 X169.663 Y117.031 E2.54433
G1 X170.126 Y117.964 E2.55805
G1 X170.34 Y118.575 E2.56657
G1 X170.477 Y119.208 E2.5751
G1 X170.535 Y119.853 E2.58363
G1 X170.513 Y120.501 E2.59216
G1 X170.412 Y121.141 E2.6007
G1 X170.126 Y122.036 E2.61307
G1 X169.753 Y122.819 E2.62449
G1 X169.397 Y123.359 E2.633
M204 S625
M205 X50 Y50
G0 F1285.7 X169.03 Y123.147
M204 S500
M205 X20 Y20
G1 F600 X168.621 Y123.614 E2.64118
G1 X168.154 Y124.025 E2.64937
G1 X167.639 Y124.372 E2.65755
G1 X166.873 Y124.739 E2.66873
G1 X166.286 Y124.943 E2.67691
G1 X165.678 Y125.069 E2.68509
G1 X165.059 Y125.117 E2.69327
G1 X164.438 Y125.084 E2.70145
G1 X163.827 Y124.972 E2.70963
G1 X162.925 Y124.654 E2.72223
G1 X162.369 Y124.377 E2.73041
G1 X161.853 Y124.03 E2.73859
G1 X161.386 Y123.621 E2.74677
G1 X160.975 Y123.154 E2.75496
G1 X160.628 Y122.639 E2.76314
G1 X160.261 Y121.873 E2.77432
G1 X160.057 Y121.286 E2.7825
G1 X159.931 Y120.678 E2.79068
G1 X159.883 Y120.059 E2.79885
G1 X159.916 Y119.438 E2.80704
G1 X160.028 Y118.827 E2.81522
G1 X160.346 Y117.925 E2.82781
G1 X160.623 Y117.369 E2.83599
G1 X160.97 Y116.853 E2.84418
G1 X161.379 Y116.386 E2.85236
G1 X161.846 Y115.975 E2.86055
G1 X162.361 Y115.628 E2.86872
G1 X163.127 Y115.261 E2.87991
G1 X163.714 Y115.057 E2.88809
G1 X164.322 Y114.931 E2.89627
G1 X164.941 Y114.883 E2.90444
G1 X165.562 Y114.916 E2.91263
G1 X166.173 Y115.028 E2.92081
G1 X167.075 Y115.346 E2.9334
G1 X167.631 Y115.623 E2.94158
G1 X168.147 Y115.97 E2.94977
G1 X168.614 Y116.379 E2.95794
G1 X169.025 Y116.846 E2.96614
G1 X169.372 Y117.361 E2.97431
G1 X169.739 Y118.127 E2.9855
G1 X169.943 Y118.714 E2.99368
G1 X170.069 Y119.322 E3.00186
G1 X170.117 Y119.941 E3.01003
G1 X170.084 Y120.562 E3.01822
G1 X169.972 Y121.173 E3.0264
G1 X169.654 Y122.075 E3.03899
G1 X169.377 Y122.631 E3.04717
G1 X169.03 Y123.147 E3.05536
M204 S625
M205 X50 Y50
G0 F1285.7 X168.665 Y122.933
M204 S500
M205 X20 Y20
G1 F600 X168.267 Y123.373 E3.06317
G1 X167.813 Y123.756 E3.07099
G1 X167.312 Y124.074 E3.07881
G1 X166.71 Y124.352 E3.08754
G1 X166.149 Y124.545 E3.09535
G1 X165.567 Y124.66 E3.10316
G1 X164.974 Y124.697 E3.11098
G1 X164.382 Y124.654 E3.1188
G1 X163.801 Y124.531 E3.12662
G1 X163.088 Y124.267 E3.13663
G1 X162.557 Y124 E3.14446
G1 X162.067 Y123.665 E3.15227
G1 X161.627 Y123.267 E3.16008
G1 X161.244 Y122.813 E3.16791
G1 X160.926 Y122.312 E3.17572
G1 X160.648 Y121.71 E3.18445
G1 X160.455 Y121.149 E3.19226
G1 X160.34 Y120.567 E3.20007
G1 X160.303 Y119.974 E3.2079
G1 X160.346 Y119.382 E3.21571
G1 X160.469 Y118.801 E3.22353
G1 X160.733 Y118.088 E3.23354
G1 X161 Y117.557 E3.24137
G1 X161.335 Y117.067 E3.24919
G1 X161.733 Y116.627 E3.257
G1 X162.187 Y116.244 E3.26482
G1 X162.688 Y115.926 E3.27263
G1 X163.29 Y115.648 E3.28136
G1 X163.851 Y115.455 E3.28918
G1 X164.433 Y115.34 E3.29699
G1 X165.026 Y115.303 E3.30481
G1 X165.618 Y115.346 E3.31263
G1 X166.199 Y115.469 E3.32045
G1 X166.912 Y115.733 E3.33046
G1 X167.443 Y116 E3.33828
G1 X167.933 Y116.335 E3.3461
G1 X168.373 Y116.733 E3.35391
G1 X168.756 Y117.187 E3.36173
G1 X169.074 Y117.688 E3.36955
G1 X169.352 Y118.29 E3.37828
G1 X169.545 Y118.851 E3.38609
G1 X169.66 Y119.433 E3.3939
G1 X169.697 Y120.026 E3.40172
G1 X169.654 Y120.618 E3.40954
G1 X169.531 Y121.199 E3.41736
G1 X169.267 Y121.912 E3.42737
G1 X169 Y122.443 E3.4352
G1 X168.665 Y122.933 E3.44301
M204 S625
M205 X50 Y50
G0 F1285.7 X168.301 Y122.716
M204 S500
M205 X20 Y20
G1 F600 X167.915 Y123.128 E3.45045
G1 X167.475 Y123.482 E3.45788
G1 X166.548 Y123.965 E3.47165
G1 X166.013 Y124.146 E3.47908
G1 X165.458 Y124.251 E3.48652
G1 X164.894 Y124.276 E3.49395
G1 X164.332 Y124.221 E3.50139
G1 X163.452 Y123.965 E3.51346
G1 X162.747 Y123.624 E3.52377
G1 X162.284 Y123.301 E3.5312
G1 X161.872 Y122.915 E3.53864
G1 X161.518 Y122.475 E3.54607
G1 X161.035 Y121.548 E3.55984
G1 X160.854 Y121.013 E3.56727
G1 X160.749 Y120.458 E3.57471
G1 X160.724 Y119.894 E3.58214
G1 X160.779 Y119.332 E3.58958
G1 X161.035 Y118.452 E3.60165
G1 X161.376 Y117.747 E3.61196
G1 X161.699 Y117.284 E3.61939
G1 X162.085 Y116.872 E3.62683
G1 X162.525 Y116.518 E3.63426
G1 X163.452 Y116.035 E3.64803
G1 X163.987 Y115.854 E3.65546
G1 X164.542 Y115.749 E3.6629
G1 X165.106 Y115.724 E3.67033
G1 X165.668 Y115.779 E3.67777
G1 X166.548 Y116.035 E3.68984
G1 X167.253 Y116.376 E3.70015
G1 X167.716 Y116.699 E3.70758
G1 X168.128 Y117.085 E3.71502
G1 X168.482 Y117.525 E3.72245
G1 X168.965 Y118.452 E3.73622
G1 X169.146 Y118.987 E3.74365
G1 X169.251 Y119.542 E3.75109
G1 X169.276 Y120.106 E3.75852
G1 X169.221 Y120.668 E3.76596
G1 X168.965 Y121.548 E3.77803
G1 X168.624 Y122.253 E3.78834
G1 X168.301 Y122.716 E3.79577
M204 S625
M205 X50 Y50
G0 F1285.7 X168.249 Y122.062
M204 S500
M205 X20 Y20
G1 F600 X167.938 Y122.496 E3.8028
G1 X167.565 Y122.878 E3.80983
G1 X167.139 Y123.201 E3.81687
G1 X166.385 Y123.578 E3.82797
G1 X165.878 Y123.747 E3.83501
G1 X165.352 Y123.84 E3.84204
G1 X164.818 Y123.852 E3.84908
G1 X164.289 Y123.785 E3.8561
G1 X163.413 Y123.493 E3.86826
G1 X162.938 Y123.249 E3.87529
G1 X162.504 Y122.938 E3.88232
G1 X162.122 Y122.565 E3.88935
G1 X161.799 Y122.139 E3.89639
G1 X161.422 Y121.385 E3.90749
G1 X161.253 Y120.878 E3.91452
G1 X161.16 Y120.352 E3.92156
G1 X161.148 Y119.818 E3.92859
G1 X161.215 Y119.289 E3.93561
G1 X161.507 Y118.413 E3.94777
G1 X161.751 Y117.938 E3.9548
G1 X162.062 Y117.504 E3.96183
G1 X162.435 Y117.122 E3.96886
G1 X162.861 Y116.799 E3.9759
G1 X163.615 Y116.422 E3.987
G1 X164.122 Y116.253 E3.99404
G1 X164.648 Y116.16 E4.00107
G1 X165.182 Y116.148 E4.00811
G1 X165.711 Y116.215 E4.01513
G1 X166.587 Y116.507 E4.02729
G1 X167.062 Y116.751 E4.03432
G1 X167.496 Y117.062 E4.04135
G1 X167.878 Y117.435 E4.04838
G1 X168.201 Y117.861 E4.05542
G1 X168.578 Y118.615 E4.06652
G1 X168.747 Y119.122 E4.07355
G1 X168.84 Y119.648 E4.08059
G1 X168.852 Y120.182 E4.08762
G1 X168.785 Y120.711 E4.09464
G1 X168.493 Y121.587 E4.1068
G1 X168.249 Y122.062 E4.11383
M204 S625
M205 X50 Y50
G0 F1285.7 X167.875 Y121.869
M204 S500
M205 X20 Y20
G1 F600 X167.576 Y122.272 E4.12044
G1 X167.217 Y122.623 E4.12705
G1 X166.808 Y122.912 E4.13364
G1 X166.222 Y123.19 E4.14218
G1 X165.745 Y123.348 E4.1488
G1 X165.25 Y123.427 E4.1554
G1 X164.749 Y123.427 E4.162
G1 X164.253 Y123.347 E4.16861
G1 X163.576 Y123.105 E4.17808
G1 X163.131 Y122.875 E4.18468
G1 X162.728 Y122.576 E4.19128
G1 X162.377 Y122.217 E4.1979
G1 X162.088 Y121.808 E4.20449
G1 X161.81 Y121.222 E4.21303
G1 X161.652 Y120.745 E4.21965
G1 X161.573 Y120.25 E4.22625
G1 X161.573 Y119.749 E4.23284
G1 X161.653 Y119.253 E4.23946
G1 X161.895 Y118.576 E4.24893
G1 X162.125 Y118.131 E4.25552
G1 X162.424 Y117.728 E4.26213
G1 X162.783 Y117.377 E4.26874
G1 X163.192 Y117.088 E4.27533
G1 X163.778 Y116.81 E4.28387
G1 X164.255 Y116.652 E4.29049
G1 X164.75 Y116.573 E4.29709
G1 X165.251 Y116.573 E4.30369
G1 X165.747 Y116.653 E4.3103
G1 X166.424 Y116.895 E4.31977
G1 X166.869 Y117.125 E4.32637
G1 X167.272 Y117.424 E4.33297
G1 X167.623 Y117.783 E4.33958
G1 X167.912 Y118.192 E4.34618
G1 X168.19 Y118.778 E4.35472
G1 X168.348 Y119.255 E4.36134
G1 X168.427 Y119.75 E4.36794
G1 X168.427 Y120.251 E4.37453
G1 X168.347 Y120.747 E4.38115
